src/assets/filled/Record.svg

<svg width="24" height="24" viewBox="0 0 24 24"  xmlns="http://www.w3.org/2000/svg">
<path d="M19.6299 7.23991C19.9299 7.70991 19.7699 8.33991 19.2899 8.62991L18.6999 8.97991L5.58991 16.8399C5.10991 17.1299 4.47991 16.9699 4.19991 16.4799C3.19991 14.7399 2.74991 12.6199 3.13991 10.3999C3.79991 6.62991 6.89991 3.62991 10.6899 3.08991C14.4399 2.55991 17.8299 4.35991 19.6299 7.23991Z" />
<path d="M20.8899 13.4301C20.2099 17.6801 16.4499 20.9301 12.1399 21.0001C10.2399 21.0301 8.47991 20.4801 7.01991 19.4901C6.39991 19.0801 6.41991 18.1601 7.05991 17.7801L19.4699 10.4901C20.1199 10.1101 20.9199 10.5501 20.9799 11.3001C21.0299 12.0001 20.9999 12.7101 20.8899 13.4301Z" />
</svg>

<?xml version="1.0" encoding="UTF-8"?>
<svg width="24" height="24" viewBox="0 0 24 24" xmlns="http://www.w3.org/2000/svg">
 <path d="m19.63 7.2399c0.3 0.47 0.14 1.1-0.34 1.39l-0.59 0.35-13.11 7.86c-0.48 0.29-1.11 0.13-1.39-0.36-1-1.74-1.45-3.86-1.06-6.08 0.66-3.77 3.76-6.77 7.55-7.31 3.75-0.53 7.14 1.27 8.94 4.15z"/>
 <path d="m20.89 13.43c-0.68 4.25-4.44 7.5-8.75 7.57-1.9 0.03-3.66-0.52-5.12-1.51-0.62-0.41-0.6-1.33 0.04-1.71l12.41-7.29c0.65-0.38 1.45 0.06 1.51 0.81 0.05 0.7 0.02 1.41-0.09 2.13z"/>
</svg>
